X: 40352
T: Tom Clancy's
R: reel
M: 4/4
K: Dmajor
|:A2 FD EFDE|(3DDD FA BcdB|(3ABA FD EFDE|FABc d2 dB|
A2 FD EFDE|(3DDD FA BcdB|(3ABA FD EFDE|1 DFEF DdcB:|2 DFEF D2 (3ABc||
|:d2 Ad BdAB|(3ddd fd edBc|d2 Ad BdAB|dfec cdde|
(3fff df (3eee ce|d2 cA Bcde|fdec dcBA|1 (3Bcd ec d2 (3ABc:|2 (3Bcd ec d2 dB||

